X:1
T:Howl's Moving Castle
T:Howl's Moving Castle
%%score { ( 1 3 ) | 2 }
L:1/8
Q:1/4=115
M:3/4
K:C
V:1 treble nm="Piano" snm="Pno."
V:3 treble 
V:2 bass 
V:1
 D2 G2 _B2 | !arpeggio![_EG_Bd]4 d2 | c2 _B2 A2 | !arpeggio![DG_B]6 | G2 _B4 | %5
 !arpeggio![G_B_eg]4 [eg]2 | ([cg]2 [cf]2) [c_e]2 | !arpeggio![Adf]6 | _B2 d2 f2 | %9
 (!arpeggio![_Bdfa]4 [dg]2) | [G_df]2 [G^ce]2 [G_df]2 | (!arpeggio![Adg]4 [df]2) | ([Ae]4 [Fd]2) | %13
 (!arpeggio![DFc]2 _B2) c2 | ([EGd]2 [Gc]2) G2 | [^FA]2 CD GA | z({ac')} (_b- b2 a2) | %17
 z{ac'} (_b- ba g^f | _ed- !fermata!d4) |[Q:1/4=190] z2 [G,_B,D]2 [G,B,D]2 | %20
 z2 [G,_B,D]2 [G,B,D]2 | z2 [G,_B,D]2 [G,B,D]2 | (D2 G2) _B2 | [_E_Bd]4 [_Bd]2 | ([Gc]2 _B2) A2 | %25
 [G_B]6 | G2 [_E_B]2 [Gd]2 | [_eg]4 g2 | ([Ag]2 [Gf]2) _e2 | [df]6 | (A2 [Gd]2 f2) | (a4 g2) | %32
 f2 e2 f2 | (g4 f2) | ([Ace]4 [Ad]2) | (c2 _B2) [Ac]2 | (d2 c2) G2 | [^FA]4 z2 | %38
 ([Dd]2 [Gg]2) [_B_b]2 | [dd']4 [dd']2 | ([cc']2 [_B_b]2) [Aa]2 | [_B_b]6 | [Gg]2 [_B_b]2 [dd']2 | %43
 [_bg']4 [bg']2 | (g'2 [f'a']2) ([_e'f']e') | [ff']6 | (a2 [ad']2) [af']2 | [aa']4 [ge'g']2 | %48
 [gg']2 (f'[ae']) [g_e'][a=e'] | (g'4 f'2-) | f'2 (e'2 ^c')d' | (d'2- d')c' ^a2 | %52
 ([^ca]3 [db] [e^c']2) | ([Ad]2 [^F^f]2 [Gg]2 | [^FAa]2 [F^f]4) | D2 [D^Fd]2 [EAe]2 | %56
 [^F^f]2 [Dd]2 z [Ad] | [_B_e]4 [Ad]2 | [Fc]2 [G_B]2 [_EA]2 | ([G_B]2 [Fc]2) [Dd]2 | [DF]4 ([DF]2 | %61
 [_B_e]4 [Ad]2 | F3 G F2) | [Dd]6 | z4 d'2 | (3(d'e')d' ^c'2 d'2 | ([af']2 [ge']2) [fd']2 | %67
 [e^c']4 ([g^c'][ae']) | [^ca]4 a2 |!mf! [fa]4 [fa]2 | [fa]2 [eg]2 [df]2 | (g4 e2) | %72
 [A^c][FA] [GB][Ac] [ce][eg] | [^F^f]4 [Ff]2 | ([^F^f]2 [Gg]2) [Aa]2 | _b6 | _b2 ba gf | %77
 [Ge]4 [Ge]2 | ([Ge]2 [Af]2) [_Bg]2 | c6 | c'2 G2 F2 | [Ge]2 [G^d]2 [Ge]2 | ([eg]2 f2) e2 | %83
 ([Dd]2 [^C^c]2) [Dd]2 | e4 [Aa]2 | [_egc']4 _b2 | [ca]4 g2 | ^fa (3(c'd')c' _b2 | %88
 z2 (3(_bc')b a2 | z2 (3(ga)g ^f2 | z2 (3(^d^f)_e =d2 | !fermata!D2 !fermata!G2 !fermata!_B2 | %92
 [d_eg_b]4 [degb]2 | [c^f]2 _B2 A2 | [_Bd]6 | [Gdg]2 _B2 d2 | [_eg_b]4 [egb]2 | %97
 [_eg_b]2 [cfa]2 [fad'][eg_e'] | [fad']2 ([f_b][_ea]) .f.[dg] | (F2 _B2 d2) | [Afa]4 [eg]2 | %101
 [eg]2 ([df][^ce] [=c^d][_de]) | ([eg]4 [df]2- | [df]2) ([ce][_Bd] [A^c][Gd]) | %104
 ([Fd]2 [Fc][Ed] [Fc][G_B]) | ([EA]3 [^FB] [G^c]2) | [dd']2 [d^f][eg] [df][eg] | %107
 [^fa]2 [df]2 [^Fd]2 | z2!>(! [D^F][EG] [DF][EG]!>)! | !fermata![^FA]6 |] %110
V:2
 z6 | C,,2 [_E,_B,D]4 | D,,2 [^F,C_E]4 | G,,2 [F,_B,D]4 | G,2 [A,_B,D]4 | C,,2 [G,_B,_E]4 | %6
 F,,2 [F,C_E]4 | _B,,2 [F,A,D]4 | F,,2 [A,D]4 | E,,2 [_B,D]4 | A,,2 [G,^C]4 | D,2 [A,D]4 | %12
 C,2 [F,A,]4 | _B,,2 [F,_B,]4 | A,,2 [E,G,]4 | D,,2 [D,G,]4 | [D,^F,A,C]6- | %17
 [D,F,A,C]4- [D,F,A,C]2 | z6 | [G,,,G,,]2 z4 | [D,,D,]2 z4 | [G,,,G,,]2 z4 | %22
 [D,,D,]2 [G,_B,D]2 [G,B,D]2 | [C,,C,]2 [G,_B,_E]2 [G,B,E]2 | [D,,D,]2 [^F,CD]2 [F,CD]2 | %25
 [G,,,G,,]2 [G,_B,D]2 [G,B,D]2 | [G,,,G,,]2 [G,_B,D]2 [G,B,D]2 | [C,,C,]2 [G,_B,_E]2 [G,B,E]2 | %28
 [F,,F,]2 [A,C_E]2 [A,CE]2 | [_B,,,_B,,]2 [F,A,D]2 [F,A,D]2 | [D,,D,]2 [F,A,D]2 [F,A,D]2 | %31
 [E,,E,]2 [G,_B,D]2 [G,B,D]2 | [A,,,A,,]2 [E,G,^C]2 [E,G,C]2 | [D,,D,]2 [F,A,D]2 [F,A,D]2 | %34
 [C,,C,]2 [F,A,D]2 [F,A,D]2 | [_B,,,_B,,]2 [F,_B,D]2 [F,B,D]2 | [A,,,A,,]2 [E,G,D]2 [E,G,D]2 | %37
 [D,,D,]2 [A,C_EG]2 [A,CEG]2 | [D,,D,]2 [A,C_EG]2 [A,CEG]2 | [C,,C,]2 [G,_B,_E]2 [G,B,E]2 | %40
 [D,,D,]2 [^F,CD]2 [F,CD]2 | [G,,,G,,]2 [G,_B,D]2 [G,B,D]2 | [G,,,G,,]2 [G,_B,D]2 [F,B,D]2 | %43
 [C,,C,]2 [G,_B,_E]2 [G,B,E]2 | [F,,F,]2 [A,C_E]2 [A,CE]2 | [_B,,,_B,,]2 [F,A,D]2 [F,A,D]2 | %46
 [F,,,F,,]2 [F,A,D]2 [F,A,D]2 | [E,,E,]2 [G,_B,D]2 [G,B,D]2 | [A,,,A,,]2 [E,G,^C]2 [E,G,C]2 | %49
 [D,,D,]2 [F,A,D]2 [F,A,D]2 | [C,,C,]2 [F,A,D]2 [F,A,D]2 | [_B,,,_B,,]2 [F,_B,D]2 [F,B,D]2 | %52
 [A,,,A,,]2 [E,G,^C]2 [E,G,C]2 | D,,2 [^F,A,D]2 [F,A,D]2 | D,2 [^F,A,D]2 [F,A,D]2 | %55
 D,,2 [^F,A,D]2 [F,A,D]2 | D,2 [^F,A,D]2 [=F,D]2 | [F,,F,]2 [G,_B,_E]2 [G,B,E]2 | %58
 [F,,F,]2 [A,C_E]2 [A,CE]2 | [_B,,,_B,,]2 [F,A,D]2 [F,A,D]2 | [_B,,,_B,,]2 [F,A,D]2 [F,A,D]2 | %61
 [F,,F,]2 [G,_B,_E]2 [G,B,E]2 | [F,,F,]2 [A,C_E]2 [A,CE]2 | [_B,,,_B,,]2 [F,A,D]2 [F,A,D]2 | %64
 _B,,2 [F,A,D]2 [F,A,D]2 | D,2 [A,DF]2 [A,DF]2 | D,2 [A,DF]2 [A,DF]2 | E,2 [A,^CE]2 [A,CE]2 | %68
 E,2 [A,^CE]2 [A,CE]2 | D,2 [A,DF]2 [A,DF]2 | D,2 [A,DF]2 [A,DF]2 | E,2 [A,^CE]2 [A,CE]2 | %72
 A,,2 [G,A,^CE]2 [E,A,=CE]2 | D,2 [^F,C_E]2 [_G,CE]2 | D,2 [^F,C_E]2 [_G,CE]2 | %75
 G,,2 [F,_B,D]2 [F,B,D]2 | G,,2 [F,_B,D]2 [F,B,D]2 | C,2 [E,_B,D]2 [E,B,D]2 | %78
 C,2 [E,_B,D]2 [E,B,D]2 | F,,2 [E,A,C]2 [E,A,C]2 | F,,2 [_E,A,C]2 [E,A,C]2 | %81
 B,,2 [^F,A,]2 [F,A,]2 | E,2 [^G,B,]2 [G,B,]2 | G,,2 [E,A,]2 [E,A,]2 | A,,2 [A,^C]2 [A,_D]2 | %85
 C,2 [G,C]2 [G,C]2 | C,2!mf! [G,C]2 [G,C]2 | [D,,D,]2 [^F,C_E]2 [_G,CE]2 | D,2 [^F,C_E]2 [_G,CE]2 | %89
 D,2 [^F,C_E]2 [_G,CE]2 | D,2 [A,C_EG]2 [A,CEG]2 | z6 | C,2 [G,_B,_E]2 [G,B,E]2 | %93
 D,2 [^F,CD]2 [F,CD]2 | G,,2 [G,_B,D]2 [G,B,D]2 | [G,_B,D]2- [G,B,D]2 [A,B,D]2 | %96
 C,2 [G,_B,_E]2 [G,B,E]2 | F,2 [A,C_E]2 [A,CE]2 | _B,,2 [F,A,D]2 [F,A,D]2 | F,2 [F,A,D]2 [F,A,D]2 | %100
 E,2 [G,_B,D]2 [G,B,D]2 | A,,2 [E,G,^C]2 [E,G,C]2 | D,2 [F,A,D]2 [F,A,D]2 | C,2 [F,A,D]2 [F,A,D]2 | %104
 _B,,2 [F,_B,D]2 [F,B,D]2 | A,,2 [E,G,^C]2 [E,G,C]2 | D,,2 [^F,A,D]2 [F,A,D]2 | %107
 D,2 [^F,A,D]2 [F,A,D]2 | D,,2 [^F,A,D]2 [F,A,D]2 | D,2 z4 |] %110
V:3
 x6 | x6 | x6 | x6 | x3 (G _Bd) | x6 | x6 | x6 | x3 (A df) | x6 | x6 | x6 | x6 | x6 | x6 | x6 | %16
 _E6 | D6 | x6 | x6 | x6 | x6 | x6 | x6 | x6 | x6 | x6 | x6 | x6 | x6 | x6 | x6 | x6 | x6 | x6 | %35
 x6 | x6 | x6 | x6 | x6 | x6 | x6 | A3 F3 | x6 | x6 | x6 | x6 | x6 | x6 | =c'3 f c'2- | %50
 c'2 _ba ga | x6 | x6 | d'6 | x6 | x6 | x6 | x6 | x6 | x6 | x6 | x6 | c2 _B2 c2 | x6 | x6 | %65
 f2 (A^c) .d.e | f'e' f'g' a'f' | x2 .g.^f x2 | gf (ed) .^c._B | z2 (a^g) a_b | (a_b) ga (fg) | %71
 [ce][df] [eg][df] [ce][Bd] | x6 | x6 | x6 | _B2 f'e' d'c' | x2 f2 d2 | x6 | x6 | x2 g'f' e'd' | %80
 x6 | x6 | x6 | x6 | x6 | x6 | x6 | x6 | x6 | x6 | x6 | x6 | x6 | x6 | g2 g^f ga | x6 | x2 _ed ef | %97
 x2 d'c' x2 | f'd' z4 | af dc AF | x6 | x6 | x6 | x6 | x6 | x6 | x6 | x6 | x6 | x6 |] %110

